X:3
M:6/8
L:1/8
K:Bb
dfd BdB | cec AcA | Bcd FGA | B[Ff][Dd] [B,2B2]B |\
dfd BdB | c=ef gab | agf cd=e | fcA F2 :|
|: f |\
fed "tr"c=Bc | [Cc]EG | cde | fdB BAB |\
[B,B]DF Bde | fed edc | def gab | fed cBA | B3 [B,2B2] :|

